X:7
T:Battle of Aughrim, The
R:march
Z:id:hn-march-7
S:(Phil Taylor) aar09@pop.dial.pipex.com abcusers 2002-3-16
M:2/4
L:1/8
K:Ador
|:EA AB/d/|ed cA|BG G/F/G/A/|B/G/A/G/ ED|
EA AB/d/|ee/d/ ea/g/|ed B/e/d/B/|A2 A2:|
|:a/b/a/g/ ef/g/|a/b/a/g/ ef/g/|aa/f/ gg/e/|dB G2|
a/b/a/g/ ef/g/|a/b/a/g/ ee/d/|Be dB|A2 A2:|
